Leslie-updated-tokens/alt.svg

<svg width="200" height="204" viewBox="0 0 200 204" fill="none" xmlns="http://www.w3.org/2000/svg">
<g clip-path="url(#clip0_162_133)">
<rect width="200" height="204" fill="white"/>
<path fill-rule="evenodd" clip-rule="evenodd" d="M1.64353 62.8957C-0.566725 64.6538 -0.566725 68.0567 1.64353 69.8715L13.2049 79.1159C14.8484 80.4203 17.172 80.4203 18.7589 79.1159L84.5565 25.5779C85.5767 24.7272 86.2001 23.4795 86.2001 22.1184V4.48036C86.2001 0.737243 81.8929 -1.30446 79.0025 1.02081L1.64353 62.8957ZM21.5359 116.887C19.8923 118.192 17.5687 118.192 15.9819 116.887L5.38397 108.38C3.17371 106.622 3.17371 103.219 5.38397 101.461L79.0592 41.5713C81.9496 39.1893 86.3134 41.2877 86.3134 45.0308V62.1584C86.3134 63.5196 85.69 64.7673 84.6699 65.618L21.5359 116.887ZM8.10429 139.289C5.89403 141.104 5.89403 144.45 8.10429 146.208L79.0025 202.979C81.8929 205.304 86.2001 203.263 86.2001 199.52V85.0709C86.2001 81.3277 81.8362 79.2293 78.9459 81.6113L8.10429 139.289ZM95.1544 198.045C95.1544 202.015 99.9717 204 102.749 201.164L198.753 105.091C200.51 103.333 200.51 100.554 198.753 98.7956L102.749 2.77894C99.9717 -3.84356e-05 95.1544 1.98495 95.1544 5.89821V198.045Z" fill="#202723"/>
</g>
<defs>
<clipPath id="clip0_162_133">
<rect width="200" height="204" fill="white"/>
</clipPath>
</defs>
</svg>

<svg xmlns="http://www.w3.org/2000/svg" width="200" height="204" fill="currentColor" viewBox="0 0 200 204">
  <g clip-path="url(#a)">
    <mask id="b" width="200" height="204" x="0" y="0" maskUnits="userSpaceOnUse" style="mask-type:luminance">
      <path fill="#fff" d="M200 0H0v204h200V0Z"/>
    </mask>
    <g mask="url(#b)">
      <path fill="#fff" d="M200 0H0v204h200V0Z"/>
      <path fill="#202723" fill-rule="evenodd" d="M1.644 62.896c-2.21 1.758-2.21 5.16 0 6.975l11.56 9.245c1.644 1.304 3.968 1.304 5.555 0l65.797-53.538c1.02-.85 1.644-2.099 1.644-3.46V4.48c0-3.743-4.307-5.785-7.198-3.46L1.644 62.897Zm19.892 53.991c-1.644 1.305-3.967 1.305-5.554 0L5.384 108.38c-2.21-1.758-2.21-5.161 0-6.919l73.675-59.89c2.89-2.382 7.254-.283 7.254 3.46v17.127c0 1.361-.623 2.61-1.643 3.46l-63.134 51.269ZM8.104 139.289c-2.21 1.815-2.21 5.161 0 6.919l70.898 56.771c2.89 2.325 7.198.284 7.198-3.459V85.07c0-3.742-4.364-5.84-7.254-3.459L8.104 139.29Zm87.05 58.756c0 3.97 4.818 5.955 7.595 3.119l96.004-96.073a4.418 4.418 0 0 0 0-6.295L102.749 2.779c-2.777-2.78-7.595-.794-7.595 3.12v192.146Z" clip-rule="evenodd"/>
    </g>
  </g>
  <defs>
    <clipPath id="a">
      <path fill="#fff" d="M0 0h200v204H0z"/>
    </clipPath>
  </defs>
</svg>
